!!!COM: Bach, Johann Sebastian
!!!OPR: Joh. Seb. Bachs vierstimmige Choralgesänge
!!!XEN: Four-part Chorales
!!!OTL: 17. Aus meines Herzens Grunde
!!!SCT: BWV 269
!!!SCA: Thematisch-systematisches Verzeichnis der musikalischen Werke Johann Sebastian Bach: Bach-Werke-Verzeichnis (Schmieder)
!!!YOR: Bach Gesellschaft Edition xxxix
!!!ENC: Steven Rasmussen
!!!CDT: 1685/3//-1750/7/28/
!!!OCY: Deutschland
!!!YEC: Copyright (c) 1994, 2000 Center for Computer Assisted Research in the Humanities
!!!YEM: Rights to all derivative editions reserved
!!!YEN: United States of America
**kern	**silbe	**kern	**silbe	**kern	**silbe	**kern	**silbe
*I:[SOPRANO]	*I:[SOPRANO]	*I:[ALTO]	*I:[ALTO]	*I:[TENORE]	*I:[TENORE]	*I:[BASSO]	*I:[BASSO]
*>[A,A,B]	*	*>[A,A,B]	*	*>[A,A,B]	*	*>[A,A,B]	*
*>A	*	*>A	*	*>A	*	*>A	*
*clefG2	*	*clefG2	*	*clefGv2	*	*clefF4	*
*k[f#]	*	*k[f#]	*	*k[f#]	*	*k[f#]	*
*G:	*	*G:	*	*G:	*	*G:	*
*M3/4	*	*M3/4	*	*M3/4	*	*M3/4	*
4g/	Ausin	4d/	.	4B\	.	4GG/	.
=1	=1	=1	=1	=1	=1	=1	=1
2g/	mei-die-	4d/	.	4B\	.	4G\	.
.	.	4e/	.	8c\L	.	4E\	.
.	.	.	.	8B\J	.	.	.
4dd\	-nes-ser	4d/	.	4A/	.	4F#\	.
=2	=2	=2	=2	=2	=2	=2	=2
4.b\	Her-Mor-	2d/	.	4G/	.	4G\	.
.	.	.	.	4F#/	.	4D\	.
8a/	.	.	.	.	.	.	.
4g/	-zens-gen-	4B/	.	4G/	.	4E\	.
=3	=3	=3	=3	=3	=3	=3	=3
4.g/	Grun--stun-	8e/L	.	8c\L	.	4C/	.
.	.	8d/	.	8B\J	.	.	.
.	.	8e/	.	4c\	.	8BB/L	.
8a/	.	8f#/J	.	.	.	8AA/J	.
4b\	.	4g/	.	4d\	.	4GG/	.
=4	=4	=4	=4	=4	=4	=4	=4
2a;/	-de-de	2f#;/	.	2d;\	.	2D;\	.
4b\	sag'dar-	4g/	.	4d\	.	4GG/	.
=5	=5	=5	=5	=5	=5	=5	=5
2dd\	ich-zu	4d/	.	4A/	.	4FF#/	.
.	.	4e/	.	4B\	.	4GG/	.
4cc\	dirmein	4f#/	.	4c\	.	4AA/	.
=6	=6	=6	=6	=6	=6	=6	=6
4b\	LobLe-	2g/	.	(4d\	.	(4BB/	.
2a/	und-be-	.	.	4e\)	.	4C/)	.
.	.	4f#/	.	8d\L	.	4D\	.
.	.	.	.	8c\J	.	.	.
=7	=7	=7	=7	=7	=7	=7	=7
2g;/	Dank,-lang,	2d;/	.	2B;\	.	2GG;/	.
=:|!	=:|!	=:|!	=:|!	=:|!	=:|!	=:|!	=:|!
*>B	*	*>B	*	*>B	*	*>B	*
4b\	o	4g/	.	4d\	.	4GG/	.
=8	=8	=8	=8	=8	=8	=8	=8
4b\	Gott	8g/L	.	4d\	.	4GG/	.
.	.	8f#/	.	.	.	.	.
4cc\	.	8e/	.	4c\	.	4AA/	.
.	.	8f#/J	.	.	.	.	.
4dd\	in	4g/	.	8B/L	.	4BB/	.
.	.	.	.	8A/J	.	.	.
=9	=9	=9	=9	=9	=9	=9	=9
4.dd\	dei-	8g/L	.	8B\L	.	4.BB/	.
.	.	8a/	.	8c\J	.	.	.
.	.	8g/	.	4d\	.	.	.
8cc\	.	8f#/J	.	.	.	8AA/	.
4b\	-nem	4g/	.	4d\	.	4GG/	.
=10	=10	=10	=10	=10	=10	=10	=10
2a;/	Thron,	2f#;/	.	2d;\	.	2D;\	.
4g/	dir	4e/	.	4B\	.	[4E\	dir
=11	=11	=11	=11	=11	=11	=11	=11
2b\	zu	4e/	.	4G/	.	4E\]	.
.	.	8f#/L	.	4B\	.	4D\	zu
.	.	8g/J	.	.	.	.	.
4cc\	Lob,	4a/	.	4e\	.	4C/	Lob,
=12	=12	=12	=12	=12	=12	=12	=12
2dd\	preis	(4a/	.	2d\	.	(4.BB/	.
.	.	4.g/)	.	.	.	.	.
.	.	.	.	.	.	8C/)	.
4cc\	und	.	.	4d\	.	4D\	.
.	.	8f#/	.	.	.	.	.
=13	=13	=13	=13	=13	=13	=13	=13
2.b\	Eh-	2g/	.	2.d\	.	8GG/L	.
.	.	.	.	.	.	8AA/J	.
.	.	.	.	.	.	4BB/	.
.	.	4fn/	.	.	.	4GG/	.
=14	=14	=14	=14	=14	=14	=14	=14
2g;/	-ren,	2e;/	.	2c;\	.	2C;/	.
4b\	durch	4g/	.	4d\	.	4GG/	.
=15	=15	=15	=15	=15	=15	=15	=15
2dd\	Chri-	4.a/	.	8d\L	.	4FF#/	.
.	.	.	.	8c\J	.	.	.
.	.	.	.	4B\	.	4GG/	.
.	.	8g/	.	.	.	.	.
4cc\	-stum,	4f#/	.	4c\	.	4AA/	.
=16	=16	=16	=16	=16	=16	=16	=16
2b\	un-	2g/	un-	2d\	un-	4BB/	.
.	.	.	.	.	.	4GG/	.
4a/	-sern	[4f#/	-sern	8d\L	-sern	4D\	.
.	.	.	.	8c\J	.	.	.
=17	=17	=17	=17	=17	=17	=17	=17
4.g/	Her-	8f#/L]	.	4B\	Her-	8E/L	.
.	.	8e/J	.	.	.	8D/	.
.	.	8e/L	Her-	4c\	.	8C/	.
8a/	.	8f#/J	.	.	.	8BB/	.
4b\	.	4g/	.	4d\	.	8AA/	.
.	.	.	.	.	.	8GG/J	.
=18	=18	=18	=18	=18	=18	=18	=18
2a;/	-ren,	2f#;/	-ren,	2d;\	-ren,	2D;\	.
4b\	dein'	4g/	.	4d\	.	4G\	.
=19	=19	=19	=19	=19	=19	=19	=19
2dd\	ein-	2a/	.	2d\	.	4G\	.
.	.	.	.	.	.	4F#\	.
4cc\	-ge-	8g/L	.	4e\	.	4E\	.
.	.	8f#/J	.	.	.	.	.
=20	=20	=20	=20	=20	=20	=20	=20
4b\	-bor-	2g/	.	2e\	.	8E\L	.
.	.	.	.	.	.	8D\J	.
2a/	-nen	.	.	.	.	4C/	.
.	.	4f#/	.	8d\L	.	4D\	.
.	.	.	.	8c\J	.	.	.
=21	=21	=21	=21	=21	=21	=21	=21
2g;/	Sohn.	2d;/	.	2B;\	.	2GG;/	.
==|!	==|!	==|!	==|!	==|!	==|!	==|!	==|!
*-	*-	*-	*-	*-	*-	*-	*-
!!!RWG: Key is interpreted using the Humdrum key tool.
!!!END: 1994/05/06/
!!!KEY: 2487268483
!!!EMD: Converted from MuseData to Humdrum Dec 19, 2000, by Andreas Kornstaedt using muse2kern.
